X: 9
T: New Princess Royal
%R: march, reel
B: "Twenty Four Favourite Dances for the Year 1783", Thomas Straight, ed. p.5 #1
F: http://www.vwml.org/browse/browse-collections-dance-tune-books/browse-straights1783
Z: 2014 John Chambers <jc:trillian.mit.edu>
M: C|
L: 1/8
K: Gm
GA |\
B2A2 G2dc | B2AB G2d2 |\
e2d2 c3f | d2cd B3d |\
cdBc ABGA | ^FGAF D2dc |
B2AG BAG^F | G6 :|\
|: d2 |\
g^fga gaga | b2 B4 ba |\
(.g.f.e.d .c.B.A.G) | ^F2D2 D4 |\
B2AB c2Bc |
d2cd g4 |\
f2B2 e4 | d2G2 c4 |\
B3A GABG | ^FGAF D2dc |\
BABG D2^F2 | G6 :|
% - - - - - - - - - - Dance description - - - - - - - - - -
%%begintext align
%% Hey contrary sides .|. hey on your own sides
%% .|: cross over 2 Cu lead up the middle & cast
%% off :|. hands 4 round right & left at top :|:
%%endtext
